priv/static/svgs/icons_new/arrows-refresh-round.svg

<svg width="32" height="32" viewBox="0 0 32 32" fill="none" xmlns="http://www.w3.org/2000/svg">
<path d="M9.34688 8.13088C9.14306 8.3172 9.12887 8.63346 9.31518 8.83728C9.5015 9.0411 9.81776 9.05529 10.0216 8.86898L9.34688 8.13088ZM21.7901 24.6771C22.0157 24.5179 22.0695 24.2059 21.9102 23.9803C21.751 23.7547 21.439 23.7009 21.2134 23.8602L21.7901 24.6771ZM16.0707 25.4994C11.0308 25.4994 6.91553 21.2629 6.91553 15.9997H5.91553C5.91553 21.7819 10.4458 26.4994 16.0707 26.4994V25.4994ZM16.0707 6.5C21.1106 6.5 25.2259 10.7365 25.2259 15.9997H26.2259C26.2259 10.2176 21.6956 5.5 16.0707 5.5V6.5ZM10.0216 8.86898C11.6367 7.39259 13.7538 6.5 16.0707 6.5V5.5C13.4903 5.5 11.1359 6.49554 9.34688 8.13088L10.0216 8.86898ZM21.2134 23.8602C19.7467 24.8955 17.9768 25.4994 16.0707 25.4994V26.4994C18.1923 26.4994 20.1621 25.8263 21.7901 24.6771L21.2134 23.8602ZM25.2259 15.9997V19.5718H26.2259V15.9997H25.2259ZM6.91553 15.9997V13.7489H5.91553V15.9997H6.91553Z" fill="black"/>
<path d="M22.876 16L25.726 19.8L28.576 16" stroke="black" stroke-linecap="round" stroke-linejoin="round"/>
<path d="M9.26562 17.0742L6.41562 13.2742L3.56562 17.0742" stroke="black" stroke-linecap="round" stroke-linejoin="round"/>
</svg>

<svg width="32" height="32" viewBox="0 0 32 32" fill="none" xmlns="http://www.w3.org/2000/svg">
  <symbol id="item" viewBox="0 0 32 32"  fill="none">
    <path d="M9.347 8.13a.5.5 0 1 0 .675.739l-.675-.738ZM21.79 24.678a.5.5 0 1 0-.577-.817l.577.817Zm-5.72.822c-5.04 0-9.154-4.236-9.154-9.5h-1c0 5.783 4.53 10.5 10.155 10.5v-1Zm0-18.999c5.04 0 9.156 4.236 9.156 9.5h1c0-5.782-4.53-10.5-10.155-10.5v1Zm-6.048 2.369C11.637 7.393 13.754 6.5 16.07 6.5v-1c-2.58 0-4.935.996-6.724 2.63l.675.739ZM21.213 23.86a8.88 8.88 0 0 1-5.142 1.64v1a9.88 9.88 0 0 0 5.72-1.823l-.578-.817ZM25.226 16v3.572h1V16h-1Zm-18.31 0v-2.251h-1v2.25h1Z" fill="currentColor"/><path d="M23.276 15.7a.5.5 0 0 0-.8.6l.8-.6Zm2.45 4.1-.4.3a.5.5 0 0 0 .8 0l-.4-.3Zm3.25-3.5a.5.5 0 0 0-.8-.6l.8.6Zm-6.5 0 2.85 3.8.8-.6-2.85-3.8-.8.6Zm3.65 3.8 2.85-3.8-.8-.6-2.85 3.8.8.6ZM8.866 17.374a.5.5 0 1 0 .8-.6l-.8.6Zm-2.45-4.1.4-.3a.5.5 0 0 0-.8 0l.4.3Zm-3.25 3.5a.5.5 0 0 0 .8.6l-.8-.6Zm6.5 0-2.85-3.8-.8.6 2.85 3.8.8-.6Zm-3.65-3.8-2.85 3.8.8.6 2.85-3.8-.8-.6Z" fill="currentColor"/>
  </symbol>
</svg>
